X: 41156
T: Tripping O'er The Bogs
R: jig
M: 6/8
K: Amixolydian
|:ABA c2A|G2E DEG|ABA c2A|Bcd cea|ABA c2d|e2d2 ed|cBA ABA|G2E DEG|
ABA c2A|G2E DEG|ABA c2A|Bcd cea|ABA c2 d|e2 d2 ed|cde g2e|a3a3|
a3g2a|f2 d2 Bd|gfe fed|e2c2A2|G2A Bcd|e2d2ed|cBA ABA|GAB deg|
a3g2a|f2 d2 Bd|gfe fed|e2c2A2|G2A Bcd|e2d2ed|cBA ABA|G2E DEG:|

